www/assets/icons/bungalow.svg

<svg xmlns="http://www.w3.org/2000/svg" width="24" height="24" viewBox="0 0 24 24" fill='currentColor'><path d="M12 3 4.2 15.5l1.7 1.06L7 14.8V21h4v-5h2v5h4v-6.21l1.1 1.77 1.7-1.06zm1 11h-2v-2h2z"/></svg>

<svg width="24" height="24" viewBox="0 0 24 24" xmlns="http://www.w3.org/2000/svg" fill='currentColor'><path d="M12 3L4.20001 15.5L5.90001 16.56L7.00001 14.8V21H11V16H13V21H17V14.79L18.1 16.56L19.8 15.5L12 3ZM13 14H11V12H13V14Z"/></svg>
